svg/fluentui-system-icons/ic_fluent_globe_person_24_regular.svg

<svg width="24" height="24" viewBox="0 0 24 24" fill="none" xmlns="http://www.w3.org/2000/svg">
<path d="M22.0011 11.9996C22.0011 6.47589 17.5233 1.99805 11.9996 1.99805C6.47589 1.99805 1.99805 6.47589 1.99805 11.9996C1.99805 17.5233 6.47589 22.0011 11.9996 22.0011C12.5384 22.0011 13.0673 21.9585 13.583 21.8765C13.2314 21.3287 13.044 20.7192 13.0069 20.1034C12.6809 20.362 12.3411 20.5011 11.9996 20.5011C10.8461 20.5011 9.71273 18.9135 9.06069 16.4993L15.6273 16.4991C15.3223 16.0617 15.1146 15.5515 15.0355 14.9997H8.73778C8.58419 14.0694 8.49805 13.0591 8.49805 11.9996C8.49805 11.309 8.53465 10.6393 8.60267 9.99901H15.3965C15.4645 10.6393 15.5011 11.309 15.5011 11.9996C15.5011 12.2409 15.4967 12.4796 15.488 12.7154C15.8407 12.1211 16.3643 11.6401 16.991 11.3402C16.977 10.8846 16.9484 10.4368 16.9062 9.99897L20.2642 9.99811C20.3906 10.522 20.4685 11.0648 20.4929 11.6215C21.16 12.0844 21.6585 12.7733 21.8774 13.5775C21.9588 13.0635 22.0011 12.5365 22.0011 11.9996ZM4.78542 16.4998L7.50791 16.4999L7.60932 16.8949C7.92632 18.0643 8.35731 19.0906 8.87959 19.9104C7.17721 19.2384 5.74376 18.0328 4.78542 16.4998ZM3.73542 9.99895H7.09302C7.03051 10.6464 6.99805 11.3156 6.99805 11.9996C6.99805 13.0422 7.07347 14.0504 7.21577 14.9995L4.04261 14.9999C3.69064 14.0669 3.49805 13.0558 3.49805 11.9996C3.49805 11.3166 3.57858 10.6525 3.73066 10.0162L3.73542 9.99895ZM8.85774 4.09747L8.88065 4.08875C8.15807 5.221 7.61122 6.74693 7.29787 8.49972L4.24975 8.49935C5.15441 6.49949 6.81043 4.91218 8.85774 4.09747ZM11.8839 3.50335L11.9996 3.49805L12.1259 3.50436C13.3875 3.63033 14.6048 5.62914 15.1709 8.4993H8.82831C9.39603 5.62107 10.6185 3.6191 11.8839 3.50335ZM15.2264 4.2629L15.1196 4.08881L15.4108 4.21008C17.3338 5.05341 18.8848 6.58795 19.7494 8.49935L16.7013 8.49972C16.4038 6.83525 15.8957 5.37537 15.2264 4.2629ZM21 14.4991C21 15.8798 19.8807 16.9991 18.5 16.9991C17.1193 16.9991 16 15.8798 16 14.4991C16 13.1184 17.1193 11.9991 18.5 11.9991C19.8807 11.9991 21 13.1184 21 14.4991ZM23 19.8741C23 21.4306 21.7143 22.9991 18.5 22.9991C15.2857 22.9991 14 21.4365 14 19.8741V19.7711C14 18.792 14.7937 17.9991 15.7727 17.9991H21.2273C22.2063 17.9991 23 18.792 23 19.7711V19.8741Z" fill="#212121"/>
</svg>

<svg xmlns="http://www.w3.org/2000/svg" width="24" height="24"><path d="M22.001 12c0-5.524-4.478-10.002-10.001-10.002C6.476 1.998 1.998 6.476 1.998 12c0 5.523 4.478 10 10.002 10 .538 0 1.067-.043 1.583-.125a3.679 3.679 0 0 1-.576-1.773c-.326.259-.666.398-1.007.398-1.154 0-2.287-1.588-2.94-4.002h6.567a3.482 3.482 0 0 1-.591-1.5H8.738a18.968 18.968 0 0 1-.135-5h6.793a18.974 18.974 0 0 1 .092 2.716 3.515 3.515 0 0 1 1.503-1.375A20.575 20.575 0 0 0 16.906 10h3.358c.127.523.204 1.066.229 1.622a3.505 3.505 0 0 1 1.384 1.957 10.01 10.01 0 0 0 .124-1.578ZM4.785 16.5h2.723l.101.395c.317 1.17.748 2.196 1.27 3.015a8.532 8.532 0 0 1-4.094-3.41Zm-1.05-6.501h3.358a20.846 20.846 0 0 0-.095 2 20.2 20.2 0 0 0 .218 3H4.043a8.483 8.483 0 0 1-.545-3c0-.682.08-1.347.233-1.983L3.735 10Zm5.123-5.902.023-.008c-.723 1.132-1.27 2.658-1.583 4.41H4.25c.904-2 2.56-3.587 4.608-4.402Zm3.026-.594L12 3.498l.126.006c1.261.126 2.479 2.125 3.045 4.995H8.828c.568-2.878 1.79-4.88 3.056-4.996Zm3.342.76-.106-.174.29.121a8.533 8.533 0 0 1 4.34 4.29H16.7c-.297-1.665-.805-3.125-1.475-4.237ZM21 14.499a2.5 2.5 0 1 1-5 0 2.5 2.5 0 0 1 5 0Zm2 5.375C23 21.431 21.714 23 18.5 23S14 21.436 14 19.874v-.103c0-.979.794-1.772 1.773-1.772h5.454c.98 0 1.773.793 1.773 1.772v.103Z"/></svg>
